assets/themes/natuurpunt/wheelchair.svg

<svg xmlns="http://www.w3.org/2000/svg" viewBox="-11.5 11 35 1">
    <defs>
        <style>.cls-1{fill:#fff;}</style>
    </defs>
    <g id="Layer_2" data-name="Layer 2">
        <g id="Layer_1-2" data-name="Layer 1">
            <path class="cls-1"
                  d="M2.52,23.73l-1-4.07h.84L3,22.45l.75-2.79h1l.71,2.84.63-2.84h.82l-1,4.07H5l-.81-3-.81,3Z"/>
            <path class="cls-1"
                  d="M9.9,22.23l.79.26a1.75,1.75,0,0,1-.6,1A1.74,1.74,0,0,1,9,23.8a1.75,1.75,0,0,1-1.33-.56,2.1,2.1,0,0,1-.52-1.51,2.2,2.2,0,0,1,.52-1.57,1.78,1.78,0,0,1,1.38-.56,1.67,1.67,0,0,1,1.21.44,1.59,1.59,0,0,1,.41.74l-.81.2a.88.88,0,0,0-.3-.5A.87.87,0,0,0,9,20.3a.91.91,0,0,0-.74.32A1.65,1.65,0,0,0,8,21.67a1.69,1.69,0,0,0,.28,1.1.88.88,0,0,0,.72.32.8.8,0,0,0,.56-.2A1.22,1.22,0,0,0,9.9,22.23Z"/>
            <path class="cls-1"
                  d="M4.8,3.08A1.54,1.54,0,1,1,6.34,1.54,1.54,1.54,0,0,1,4.8,3.08ZM10.25,11h-5a1.54,1.54,0,0,1-1.57-1.4L3.42,4.94a1.49,1.49,0,1,1,3-.17l.1,1.61H9.37a.7.7,0,0,1,.7.7.71.71,0,0,1-.7.69H6.57l0,.88h3.85a.92.92,0,0,1,.75.44L14,13.8A.9.9,0,0,1,13.69,15a.91.91,0,0,1-1.23-.31Zm.06,1.39.86,1.44a5.78,5.78,0,1,1-8.3-7.11l.07,1.41a4.58,4.58,0,1,0,7.37,4.26Z"/>
        </g>
    </g>
</svg>

<?xml version="1.0" encoding="UTF-8" standalone="no"?>
<svg
   viewBox="-11.5 11 14.09847 23.802593"
   version="1.1"
   id="svg1490"
   sodipodi:docname="wheelchair.svg"
   width="14.09847"
   height="23.802593"
   inkscape:version="1.1.1 (1:1.1+202109281949+c3084ef5ed)"
   xmlns:inkscape="http://www.inkscape.org/namespaces/inkscape"
   xmlns:sodipodi="http://sodipodi.sourceforge.net/DTD/sodipodi-0.dtd"
   xmlns="http://www.w3.org/2000/svg"
   xmlns:svg="http://www.w3.org/2000/svg">
  <sodipodi:namedview
     id="namedview1492"
     pagecolor="#505050"
     bordercolor="#eeeeee"
     borderopacity="1"
     inkscape:pageshadow="0"
     inkscape:pageopacity="0"
     inkscape:pagecheckerboard="0"
     showgrid="false"
     inkscape:zoom="15.534994"
     inkscape:cx="-5.8577429"
     inkscape:cy="9.0119122"
     inkscape:current-layer="svg1490" />
  <defs
     id="defs1480">
    <style
       id="style1478">.cls-1{fill:#fff;}</style>
  </defs>
  <g
     id="Layer_2"
     data-name="Layer 2"
     transform="matrix(0.59969098,0,0,0.59969098,-8.686888,15.764196)">
    <g
       id="Layer_1-2"
       data-name="Layer 1">
      <path
         class="cls-1"
         d="m 2.52,23.73 -1,-4.07 H 2.36 L 3,22.45 3.75,19.66 h 1 l 0.71,2.84 0.63,-2.84 h 0.82 l -1,4.07 H 5 l -0.81,-3 -0.81,3 z"
         id="path1482" />
      <path
         class="cls-1"
         d="m 9.9,22.23 0.79,0.26 a 1.75,1.75 0 0 1 -0.6,1 A 1.74,1.74 0 0 1 9,23.8 1.75,1.75 0 0 1 7.67,23.24 2.1,2.1 0 0 1 7.15,21.73 2.2,2.2 0 0 1 7.67,20.16 1.78,1.78 0 0 1 9.05,19.6 a 1.67,1.67 0 0 1 1.21,0.44 1.59,1.59 0 0 1 0.41,0.74 l -0.81,0.2 A 0.88,0.88 0 0 0 9.56,20.48 0.87,0.87 0 0 0 9,20.3 0.91,0.91 0 0 0 8.26,20.62 1.65,1.65 0 0 0 8,21.67 1.69,1.69 0 0 0 8.28,22.77 0.88,0.88 0 0 0 9,23.09 0.8,0.8 0 0 0 9.56,22.89 1.22,1.22 0 0 0 9.9,22.23 Z"
         id="path1484" />
      <path
         class="cls-1"
         d="M 4.8,3.08 A 1.54,1.54 0 1 1 6.34,1.54 1.54,1.54 0 0 1 4.8,3.08 Z M 10.25,11 h -5 A 1.54,1.54 0 0 1 3.68,9.6 L 3.42,4.94 a 1.5024064,1.5024064 0 1 1 3,-0.17 l 0.1,1.61 h 2.85 a 0.7,0.7 0 0 1 0.7,0.7 0.71,0.71 0 0 1 -0.7,0.69 h -2.8 v 0.88 h 3.85 a 0.92,0.92 0 0 1 0.75,0.44 L 14,13.8 A 0.9,0.9 0 0 1 13.69,15 0.91,0.91 0 0 1 12.46,14.69 Z m 0.06,1.39 0.86,1.44 A 5.78,5.78 0 1 1 2.87,6.72 l 0.07,1.41 a 4.58,4.58 0 1 0 7.37,4.26 z"
         id="path1486" />
    </g>
  </g>
</svg>
